X: 882
T: Alexander MacAskill Of Bernera, Harris
R: jig
M: 6/8
K: Edorian
|:EEE BAF|ADF EEE|Edc BAF|AFA BAF|
EEE BAF|ADF EEE|Edc BAF|AFA B3:|
|:d2 e dBB|AFA DFF|d2 e dBB|AFA B3|
[1 d2 e dBB|AFA DFF|d2 c BAF|AFA B3:|
[2 EEE BAF|ADF EEE|Edc BAF|AFA B3||
|:EEE BAF|AAA DFF|AAA DFF|BAF ADF|
EEE BAF|AAA DFF|d2 c BAF|AFA B3:|
|:ABB Bcd|eBe dBB|AFA DFF|AAA BAF|
[1 ABB Bcd|eBe dBB|d2 c BAF|AFA B3:|
[2 EEE BAF|AAA DFF|d2 c BAF|AFA B3||

